X:562
T:
S:Efter »Florsen» i Burs.
R:vals
O:Gotland, Burs
M:3/4
L:1/8
K:C
E2|CEGcec|cBBGBd|fefagB|ceecGE|CEGcec|cBBGBd|fefagB|
c4::ef|gefdec|dcBA G2|edcBAG|GFAG E2|CEGcec|cBBGBd|
fefagB|c4::gf|e2 efde|ce G2 c2|BAGB d2|dcceag|gfefde|
ce G2c2|BAGBdB|c4::e2|ecGc e2|dBGBd2|fefa g2|gfeg c2|
ecGc e2|dBGB d2|fa g2 Bd|c4:|

